X: 1
T: Rathlin Island
C: Peter Browne?
R: reel
S: J\"orgen Fischer
D: Sharon Shannon: Each Little Thing
D: Michael McGoldrick: Morning Rory
D: Dervish: Playing with Fire
Z: id:hn-reel-762 Henrik Norbeck <henrik.norbeck:mailbox.swipnet.se>
M: C|
K: Ador
e2dB eA~A2 | e2dA AGBd | e2dB eA~A2 | d2Bd BA~A2 :|
|: A2AB EGBG | ~A3B de~e2 | AGAB dGBd | eged BA~A2 :|
"variations"
|: egdB eA~A2 | eBdB GABd | e2dB eA~A2 | dged BA~A2 :|
|: ~A3B EG~G2 | AGAB dedB | AGAB dG (3Bcd | eged BA~A2 :|
|: e2dg eA~A2 | eged BA (3Bcd | e2dg eA~A2 |1  dged BA (3Bcd :|2 dged BAGB ||
|: AGAB EG~G2 | AGAB dedB | AGAB ~E3d |1  eged BAGB :|2  eged BA (3Bcd |]
